svgs/thin/prescription.svg

<svg xmlns="http://www.w3.org/2000/svg" viewBox="0 0 448 512"><!--! Font Awesome Pro 6.3.0 by @fontawesome - https://fontawesome.com License - https://fontawesome.com/license (Commercial License) Copyright 2023 Fonticons, Inc. --><path d="M299.3 352l146.3-146.3c3.125-3.125 3.125-8.188 0-11.31s-8.188-3.125-11.31 0L288 340.7L171.3 224H176C237.8 224 288 173.8 288 112S237.8 0 176 0H8C3.594 0 0 3.578 0 8v304C0 316.4 3.594 320 8 320S16 316.4 16 312V224h132.7l128 128l-146.3 146.3c-3.125 3.125-3.125 8.188 0 11.31C131.9 511.2 133.9 512 136 512s4.094-.7813 5.656-2.344L288 363.3l146.3 146.3C435.9 511.2 437.9 512 440 512s4.094-.7813 5.656-2.344c3.125-3.125 3.125-8.188 0-11.31L299.3 352zM16 16h160c52.94 0 96 43.06 96 96s-43.06 96-96 96h-160V16z"/></svg>

<svg xmlns="http://www.w3.org/2000/svg" viewBox="0 0 448 512"><!-- Font Awesome Pro 6.0.0-alpha2 by @fontawesome - https://fontawesome.com License - https://fontawesome.com/license (Commercial License) --><path d="M299.312 352L445.656 205.656C448.781 202.531 448.781 197.469 445.656 194.344S437.469 191.219 434.344 194.344L288 340.688L171.312 224H176C237.75 224 288 173.75 288 112S237.75 0 176 0H8C3.594 0 0 3.578 0 8V312C0 316.422 3.594 320 8 320S16 316.422 16 312V224H148.688L276.688 352L130.344 498.344C127.219 501.469 127.219 506.531 130.344 509.656C131.906 511.219 133.938 512 136 512S140.094 511.219 141.656 509.656L288 363.312L434.344 509.656C435.906 511.219 437.938 512 440 512S444.094 511.219 445.656 509.656C448.781 506.531 448.781 501.469 445.656 498.344L299.312 352ZM16 16H176C228.938 16 272 59.062 272 112S228.938 208 176 208H16V16Z"/></svg>
